app/assets/images/locator/texticon_pppo.svg

<?xml version="1.0" encoding="UTF-8"?>
<svg width="40px" height="40px" viewBox="0 0 40 40" version="1.1" xmlns="http://www.w3.org/2000/svg" xmlns:xlink="http://www.w3.org/1999/xlink">
    <!-- Generator: Sketch 45.1 (43504) - http://www.bohemiancoding.com/sketch -->
    <title>texticon_pppo</title>
    <desc>Created with Sketch.</desc>
    <defs></defs>
    <g id="LocatorMaps" stroke="none" stroke-width="1" fill="none" fill-rule="evenodd">
        <g id="PPPO_Location_Desktop" transform="translate(-478.000000, -398.000000)">
            <g id="Group-18" transform="translate(478.000000, 398.000000)">
                <g id="Group-17" fill="#205493">
                    <circle id="Oval" cx="19.737609" cy="19.737609" r="19.737609"></circle>
                </g>
                <path d="M8.66980233,29.0385345 L30.3770841,29.0385345 L30.3770841,28.203639 L8.66980233,28.203639 L8.66980233,29.0385345 Z M24.2545174,26.5338481 L26.4809053,26.5338481 L26.4809053,22.0810724 L24.2545174,22.0810724 L24.2545174,26.5338481 Z M12.5659811,24.0291618 L18.1319508,24.0291618 L18.1319508,22.0810724 L12.5659811,22.0810724 L12.5659811,24.0291618 Z M11.6442565,20.4112815 C11.2173467,20.4560875 10.8939638,20.8170407 10.8961902,21.2461769 L10.8961902,24.8640572 C10.8961902,25.3251978 11.2699451,25.6989527 11.7310857,25.6989527 L18.9668462,25.6989527 C19.4279868,25.6989527 19.8017417,25.3251978 19.8017417,24.8640572 L19.8017417,21.2461769 C19.8017417,20.7850363 19.4279868,20.4112815 18.9668462,20.4112815 L11.7310857,20.4112815 C11.7021426,20.4096117 11.6731996,20.4096117 11.6442565,20.4112815 Z M10.2438586,13.1755209 L28.8030279,13.1755209 L30.2813494,16.975965 C29.9270754,17.4791286 29.2110134,17.9065951 28.2898455,17.9065951 C27.2231274,17.9065951 26.3951894,17.3441539 26.1330322,16.7413594 C25.9487986,16.318624 25.4564886,16.1254848 25.0340315,16.3097184 C24.8408923,16.3940429 24.686715,16.5482202 24.6023905,16.7413594 C24.3402334,17.3441539 23.5122954,17.9065951 22.4455773,17.9065951 C21.3788592,17.9065951 20.5509212,17.3441539 20.288764,16.7413594 C20.1045304,16.318624 19.6122204,16.1254848 19.189485,16.3097184 C18.9963459,16.3940429 18.8424468,16.5482202 18.7581224,16.7413594 C18.4959652,17.3441539 17.6680272,17.9065951 16.6013091,17.9065951 C15.534591,17.9065951 14.706653,17.3441539 14.4444959,16.7413594 C14.259984,16.318624 13.7679523,16.1254848 13.3452169,16.3097184 C13.152356,16.3940429 12.9981787,16.5482202 12.9138542,16.7413594 C12.651697,17.3441539 11.8237591,17.9065951 10.757041,17.9065951 C9.83615128,17.9065951 9.12008928,17.4791286 8.76553701,16.975965 L10.2438586,13.1755209 Z M10.6178917,11.50573 L28.4289947,11.50573 L28.4289947,10.6708345 L10.6178917,10.6708345 L10.6178917,11.50573 Z M9.69616714,9.00104362 C9.26925727,9.04584968 8.94587443,9.40680281 8.94810082,9.83593907 L8.94810082,11.9145504 L7.06095879,16.7672411 C6.97997394,16.9717905 6.98303522,17.1999953 7.06958605,17.4023183 C7.34231856,18.0284898 7.80902512,18.5444552 8.39150385,18.9154271 L8.39150385,26.5338481 L7.83490688,26.5338481 C7.80596384,26.5321783 7.77702079,26.5321783 7.74807775,26.5338481 C7.32116788,26.5786542 6.99778504,26.9396073 7.00001143,27.3687436 L7.00001143,29.8734299 C7.00001143,30.3345705 7.37376629,30.7083254 7.83490688,30.7083254 L31.2119795,30.7083254 C31.6731201,30.7083254 32.046875,30.3345705 32.046875,29.8734299 L32.046875,27.3687436 C32.046875,26.907603 31.6731201,26.5338481 31.2119795,26.5338481 L30.6553826,26.5338481 L30.6553826,21.2461769 C30.6631749,20.7850363 30.2958209,20.4051589 29.8346803,20.3970882 C29.7979449,20.3965316 29.7612095,20.3984797 29.7247524,20.4026542 C29.2981209,20.451913 28.9783559,20.8167624 28.9855917,21.2461769 L28.9855917,26.5338481 L28.1506962,26.5338481 L28.1506962,21.2461769 C28.1506962,20.7850363 27.7769414,20.4112815 27.3158008,20.4112815 L23.419622,20.4112815 C23.3906789,20.4096117 23.3617359,20.4096117 23.3327929,20.4112815 C22.905883,20.4560875 22.5825002,20.8170407 22.5847265,21.2461769 L22.5847265,26.5338481 L10.0612948,26.5338481 L10.0612948,19.5243442 C10.288108,19.55774 10.5210438,19.576386 10.757041,19.576386 C11.9030741,19.576386 12.9450236,19.1572685 13.679175,18.4545648 C14.4133264,19.1572685 15.455276,19.576386 16.6013091,19.576386 C17.7473423,19.576386 18.7892918,19.1572685 19.5234432,18.4545648 C20.2575946,19.1572685 21.2995441,19.576386 22.4455773,19.576386 C23.5916105,19.576386 24.63356,19.1572685 25.3677114,18.4545648 C26.1018628,19.1572685 27.1438123,19.576386 28.2898455,19.576386 C29.9290235,19.576386 31.3917604,18.7473348 31.9773004,17.4023183 C32.0638512,17.1999953 32.0666342,16.9717905 31.9859276,16.7672411 L30.0987856,11.9145504 L30.0987856,9.83593907 C30.0987856,9.37479848 29.7250307,9.00104362 29.2638902,9.00104362 L9.78299627,9.00104362 C9.75405323,8.99965213 9.72511018,8.99965213 9.69616714,9.00104362 L9.69616714,9.00104362 Z" id="Fill-1" fill="#FFFFFE"></path>
            </g>
        </g>
    </g>
</svg>

<svg width="40" height="40" viewBox="0 0 40 40" xmlns="http://www.w3.org/2000/svg"><title>texticon_pppo</title><g fill="none" fill-rule="evenodd"><circle cx="19.738" cy="19.738" r="19.738" fill="#205493"/><path d="M8.67 29.04h21.707v-.836H8.67v.835zm15.585-2.506h2.226V22.08h-2.225v4.454zm-11.69-2.505h5.567v-1.95h-5.566v1.95zm-.92-3.62c-.428.046-.75.407-.75.836v3.618c0 .46.375.835.836.835h7.237c.46 0 .835-.375.835-.836v-3.618c0-.46-.374-.835-.835-.835h-7.322zm-1.4-7.234h18.558l1.478 3.8c-.353.503-1.07.93-1.99.93-1.067 0-1.895-.562-2.157-1.165-.184-.42-.677-.615-1.1-.43-.192.084-.346.238-.43.43-.263.604-1.09 1.167-2.157 1.167s-1.895-.563-2.157-1.166c-.185-.42-.678-.615-1.1-.43-.194.084-.348.238-.432.43-.262.604-1.09 1.167-2.157 1.167-1.065 0-1.893-.563-2.156-1.166-.184-.42-.676-.615-1.1-.43-.192.084-.346.238-.43.43-.262.604-1.09 1.167-2.157 1.167-.92 0-1.637-.428-1.99-.93l1.477-3.8zm.373-1.67h17.81v-.835H10.62v.836zM9.696 9c-.427.046-.75.407-.748.836v2.08l-1.887 4.85c-.08.206-.077.434.01.636.272.626.74 1.142 1.322 1.513v7.62h-.557c-.03-.003-.058-.003-.087 0-.427.044-.75.405-.748.834v2.503c0 .462.374.835.835.835h23.377c.46 0 .835-.373.835-.835V27.37c0-.462-.374-.836-.835-.836h-.557v-5.288c.008-.46-.36-.84-.82-.85-.037 0-.074.002-.11.007-.427.05-.747.414-.74.843v5.288h-.834v-5.288c0-.46-.373-.835-.834-.835h-3.983c-.427.046-.75.407-.748.836v5.288H10.06v-7.01c.228.034.46.052.697.052 1.146 0 2.188-.42 2.922-1.12.733.7 1.775 1.12 2.92 1.12 1.147 0 2.19-.42 2.923-1.12.735.7 1.777 1.12 2.923 1.12 1.146 0 2.188-.42 2.922-1.12.734.7 1.776 1.12 2.922 1.12 1.64 0 3.102-.83 3.687-2.174.087-.202.09-.43.01-.635l-1.888-4.852v-2.08c0-.46-.375-.834-.836-.834H9.696z" fill="#FFFFFE"/></g></svg>
